X:1
T:Set tune
N:from the playing of Sally Sloane
Z:Ian Hayden 2017
L:1/8
M:2/4
K:D
|:D2 FA|A2 FA|f2 ed|e2 d2|
|E2 FG|c2>B2|1AB GA|F3E:|2AA Bc|d4|]
|:AB AF|AB AF|Ad cB|cB A2|
|AB AF|AB AF|Af fe|d2 d2:|
